!! 00046] TT[KA
!! NN
!!!OTL: Yang guan ge
!!!ARE: Asia, China, Shanxi, Hepu
!! Ethnic Group: Han
!! I, 322, 1)
!!!SCT: C0085
!!!YEM: Copyright 1995, estate of Helmut Schaffrath.
**kern
*ICvox
*Ivox
*M2/4
*k[f#c#]
*D:
{8ff#
4ee
16ff#
16ee
=1
16dd
16b
16dd
16f#
4e
=2
8.ee
16dd
16b
16dd
16ee
16ff#
=3
2ee}
=4
{8ff#
4ee
16ff#
16ee
=5
16dd
16b
16dd
16f#
4e
=6
8.ee
16dd
16b
16dd
16ee
16dd
=7
8b
4.a}
==
!!!AGN: Shange, Shanqu. Muyang
!! 
!!!ONB: ESAC (Essen Associative Code) Database: CHINA
!!!AMT: simple duple
!!!AIN: vox
!!!EED: Helmut Schaffrath
!!!EEV: 1.0
*-
